X:1
T:Gentil galant
T:Jean de Castro
T:Source : La fleur des chansons à 3---Louvain---P.Phalèse---1574. Editor : André Vierendeels (13/08/18) Notes : Original clefs : G2, C2, C3 Original note values have been halved Editorial accidentals above the staff 
T:Gentil galant
T:©
T:©
T:©
T:©
C:Jean de Castro
Z:©
%%score [ 1 2 3 ]
L:1/8
Q:1/4=60
M:2/2
K:F
V:1 treble nm="Soprano" snm="S"
V:2 treble nm="Alto" snm="A"
V:3 treble-8 nm="Tenor" snm="T"
V:1
 F2 Ac F2 z c | dfed c>cBA | GG A2 z f2 e | d c2 B c2 z F | Ac F2 z cdf | edc>c BAGG | %6
w: Gen- til ga- lant, com-|pai- gnon du rai- sin, com- pai- gnon|du rai- sin, com- pai-|gnon du rai- sin, beu-|vons d'au- tant du soir et|du ma- tin, du soir et du ma-|
 A2 z f2 e2 c |"^-natural""^-natural" d c3/2B/4A/4B c2 z c | A2 G2 c2 z F | GG A2 z F B2 | %10
w: tin, du soir et|du ma- * * * tin, chas-|cun son pot, chas-|cun son pot et puis|
 z GAc df e2 | d2 c4 G2- | G2 A2 B2 B2 | A c2 A2 d2 G | z G c2 z c A2 | B2 Ac B2 G2 | %16
w: hu- tot, à no- stre'ho- tes-|se ne don'-|* rons point d'ar-|gent, mais un cre- do,|cre- do, mais un|cre- do, mais un cre-|
 A c2 A2 d2 G | z G c2 z c A2 | B2 Ac B2 G2 | A8 |] %20
w: do, mais un cre- do,|cre- do, mais un|cre- do, mais un cre-|do.|
V:2
 z2 F2 Ac F2 | z FGB AG>FF- | FE F2 z DAG | GE D2 z C D2 | z FAc F2 z F | GBAG>F F2 E | %6
w: Gen- til ga- lant,|com- pai- gnon du rai- * *|* * sin, com- pai- gnon|du rai- sin, beu- vons,|beu- vons d'au- tant du|soir et du ma- * * *|
 F2 z D A2 G2 | GEDG E2 C2 | F2 z E FG A2 | z E F2 z D G2 | z E F2 z FGA | B2 A F2 E2 C | %12
w: tin, du soir et|du ma- tin, chas- cun son|pot, chas- cun son pot|et puis, et puis|hu- tot, à no- stre'ho-|tes- se ne don'- rons|
 D2 F3 E/D/ E2 | F2 A2 F2 B2 | GcFG A2 z F | G2 F3 E/D/ E2 | F2 A2 F2 B2 | GcGG A2 z F | %18
w: point d'ar- * * *|gent, mais un cre-|do, mais un cre- do, mais|un cre- * * *|do, mais un cre-|do, mais un cre- do, mais|
 G2 F3 E/D/ E2 | F8 |] %20
w: un cre- * * *|do.|
V:3
"^-natural" z8 | z4 c2 df | c2 z F GBAc | G4 z4 | z8 | z2 c2 df c2 | z FGB A2 c2 | G4 z c A2 | %8
w: |Gen- til ga-|lant, com- pai- gnon du rai-|sin,||beu- vons d'au- tant|du soir et du ma-|tin, chas- cun|
 F2 c2 z cfd | ccFF B2 z G | c2 z f d2 c2 | B/c/d/e/ f2 c3 c | B2 A2 G2 G2 | F2 f2 d2 g2 | %14
w: son pot, chas- cun son|pot, et puis hu- tot, hu-|tot, à no- stre'ho-|tes- * * * * se, ne|don'- rons point d'ar-|gent, mais un cre-|
 c2 z c A2 d2 | G2 z A B2 c2 | F2 f2 d2 g2 | c2 z c A2 d2 | G2 z A B2 c2 | F8 |] %20
w: do, mais un cre-|do, mais un cre-|do, mais un cre-|do, mais un cre-|do, mais un cre-|do.|

